!!!COM: Ernest Chausson
!!!CNT: Francais
!!!TXO: Francais
!!!OTL: "La Cigale"
!!!LYR: Leconte de Lisle
!!!OPR: Quatre me/lodies
!!!OPS: Op. 13
!!!ONM: No. 4
!!!ENC: Emily Thomas
!!!YOR: CD Sheet Music French Art Songs, The Ultimate Collection
!!!YOR: CD Sheet Music, LLC 2003
!!!ODT: 1887/
!!NB: Vocal melody and text encoded.
**kern	**silbe
=1	=1
*clefG2	*
*k[f#c#]	*
*M6/8	*
*MM[Gaiement.]	*
2.r	.
=2	=2
2.r	.
=3	=3
2.r	.
=4	=4
2.r	.
=5	=5
2.r	.
=6	=6
2.r	.
=7	=7
{4.ee	{O
4.dd	Ci-
=8	=8
[4.cc#	-ga-
4cc#]	|
8cc#	-le,
=9	=9
[4.b	ne/e
4b]	|
8a	a-
=10	=10
4.g	-vec
8.a	les
8.a	beaux
=11	=11
[2.b	jours,
=12	=12
4b]}	|}
8r	.
4r	.
8r	.
=13	=13
{8.b	{Sur
8.cc#	les
8.dd	verts
8.ee	ra-
=14	=14
[4.ff#	-meaux
4ff#]	|
8ff#	de\s
=15	=15
4.gg	la\u-
4dd	-be
8dd	po-
=16	=16
2.ff#	-se/-
=17	=17
[4.ff#	-e.
8ff#]}	|}
8r	.
{8ff#	{Con-
=18	=18
4.ee	-ten-
4ee	-te
8b	de
=19	=19
4a	boire
8a	un
8a	pen
8dd	de
8ee	ro-
=20	=20
4.dd	-se/-
8dd}	-e,}
8r	.
8r	.
=21	=21
{4.g	{Et
8g	tel-
8b	-le
8dd	quim
=22	=22
[2.ee	roi,
=23	=23
4.ee_	|
4ee]	|
8ee	tu
=24	=24
[4.b	chan-
4b]	|
8a	|
=25	=25
4.g	-tes
4.f#	tou-
=26	=26
[4.e	-jours.
8e]}	|}
8r	.
8r	.
=27	=27
2.r	.
=28	=28
2.r	.
=29	=29
4r	.
8r	.
8r	.
{8b	{In-
8b	-no-
=30	=30
4.ee	-cente
4.ccn	a\
=31	=31
[2.b	tous.
=32	=32
8b]}	|}
8r	.
8r	.
{4.b	{pai-
=33	=33
2.ccn	-sible
=34	=34
[4.gg	et
4gg]	|
8gg	sans
=35	=35
[2.ee	ru-
=36	=36
4.ee_	|
8ee]}	-ses.}
8r	.
8r	.
=37	=37
{4.ee-	{Le
4.ee-	gai
=38	=38
4.dd	la-
4.ccn	-bou-
=39	=39
[4.b	-reur,
4b]	|
8b	du
=40	=40
4.cn	che^ne
8.b-	a-
8.a-	-bri-
=41	=41
[2.g	-te/.
=42	=42
4g]}	|}
8r	.
8r	.
{4g	{T'e/-
=43	=43
[2.a	-cou-
=44	=44
4a]	|
4ccn	-te
4dd	de
=45	=45
[2.ee	loin
=46	=46
4.ee]	|
8.ccn	an-
8.ee	-non-
=47	=47
2.ffn	-cer
=48	=48
2.gg	l'E-
=49	=49
[2.aa	-te/
=50	=50
2.aa_	|
=51	=51
2.aa_	|
=52	=52
8aa]}	|}
8r	.
8r	.
4r	.
8r	.
=53	=53
{4.ccn	{A-
4.ccn	-pol-
=54	=54
[2.b-	-lo6n
=55	=55
4.b-]	|
4.g	t'ho-
=56	=56
4.a	-nore
4.a	au-
=57	=57
4.dd	-tant
8.dd	que
8.ccn	les
=58	=58
[2.b-	Mu-
=59	=59
4.b-]	|
4g}	-ses.}
8r	.
=60	=60
4r	.
8r	.
{4.ee-	{Et
=61	=61
2.ee-	Zeus
=62	=62
4.ee-	ta
4.b-	don-
=63	=63
[2.a#	-ne/
=64	=64
2.a#]}	|}
=65	=65
{4.cc#	{l'Im-
4.cc#	-mor-
=66	=66
4.an	-ta-
4.e	-li-
=67	=67
*M2/4	*
[2e	-te/!
=68	=68
2e_	|
=69	=69
8e]}	|}
8r	.
{4ee	{Sa-
=70	=70
2ee	lut,
=71	=71
4.dd	sage/
8dd	en-
=72	=72
2cc#	-fant
=73	=73
4b	de
4a	la
=74	=74
4g	terre
4a	an-
=75	=75
2b	-ti-
=76	=76
4b}	-que.}
4r	.
=77	=77
{4b	{Dont
4cc#	le
=78	=78
4dd	chant
4ee	in-
=79	=79
4.ff#	-vite
8cc#	a\
=80	=80
[2b	clo-
=81	=81
8b]	|
8g	-re
4b	les
=82	=82
[2dd	yeux,
=83	=83
4dd]}	|}
8r	.
{8ff#	{Et
=84	=84
4ee	qui
8b	sous
8b	l'ar-
=85	=85
4a	-deur
8a	du
8dd	so-
=86	=86
4dd	-leil
4ee	at-
=87	=87
4ee	-ti-
4a}	-que,}
=88	=88
{4dd	{Nay-
4cc#	-ant
=89	=89
4.b	chair
8a	ni
=90	=90
2b}	sang,}
=91	=91
{4dd	{vis
4ee	sem-
=92	=92
2ff#	-blable
=93	=93
2gg	aux
=94	=94
[2bb	Dieux,
=95	=95
2bb_	|
=96	=96
4bb_	|
8bb]}	|}
8r	.
==	==
*-	*-
